X: 42
T: Pollonesse #42
M: 3/4
L: 1/16
K: D
Q:110
|dA(FA) D2(DF) A,2(A,E)|D2(DF) E2(EG) F4|(FAdf) e2(eg) f2(fa)| g2(gb) (agfe) f2d2|
|dA(FA) D2(DF) A,2(A,E)|D2(DF) E2(EG) F4|(FAdf) e2(eg) f2(fa)| agec d4D4:|
|:FAdf e2(eA) f2(fA)|g2(gb) (agfe) f2d2|FAdf eAeA fAfA|gAgA (agfe) f4|
|dA(FA) D2(DF) A,2(A,E)|D2(DF) E2(EG) F4|(FAdf) e2(eg) f2(fa)| agec d4D4:|
|:dAFA DFDF A,EA,E|DFDF EGEG F4|FDEF GABc defg|agaf gfge fefd|
|dAFA DFDF A,EA,E|DFDF EGEG F4|FDEF GABc defg|agec d4D4:|
|:FAdA EAeA FAfA|GAgA EAeA FAeA|FAdA EAeA FAfA|GAgA EAeA FAeA|
|dAFA DFDF A,EA,E|DFDF EGEG F4|FDEF GABc defg|agec d4D4:|

